X:1
T:Wenn ich nur dich habe
T:Reinhold Succo
T:Psalm 73
T:Wenn ich nur dich habe
T:Abendmahlsgesang
T:CPDL - Creative Commons Attribution Non Commercial 3.0
T:CPDL - Creative Commons Attribution Non Commercial 3.0
T:CPDL - Creative Commons Attribution Non Commercial 3.0
T:CPDL - Creative Commons Attribution Non Commercial 3.0
C:Reinhold Succo
Z:Psalm 73
Z:CPDL - Creative Commons Attribution Non Commercial 3.0
%%score [ ( 1 2 ) 3 4 ]
L:1/8
Q:1/4=90
M:4/4
K:Eb
V:1 treble nm="Sopran\nAlt"
V:2 treble 
V:3 treble-8 nm="Tenor"
V:4 bass nm="Bass"
V:1
!p!"^Langsam""^Soli, Wiederholung Chor."!<(! G4 G2 G2!<)! | F6!mf! G2 | !>!A2 (A4!>(! G2)!>)! | %3
w: Wenn ich nur|dich, nur|dich ha- *|
 F2!p!!<(! B2 B2 B2!<)! | G6!mf! A2 | B2 (B4!>(! A2) | G2!>)!!f! G2 !>!e2 dc | !^!f4 !^!e4 | %8
w: be, wenn ich nur|dich, nur|dich ha- *|be, so fra- ge ich|nichts, nichts,|
 !^!d2 d2 e2 dd | c8 |!>(! B6!>)! z2 :|!pp!"^Soli" F4 F4 |!<(! B2 B4!<)! B2 | _d4 c2 c2 | %14
w: nichts nach Him- mel und|Er-|de.|Wenn mir|gleich Leib und|See- le ver-|
!>(! B8!>)! | =A8 |!pp! c4 c4 |!<(! c2 c4 c2 | e4!<)! d2 d2 |!>(! c8!>)! | =B8 | z8 | z4!f! B2 B2 | %23
w: schmach-|ten,|wenn mir|gleich Leib und|See- le ver-|schmach-|ten,||so bist|
 e4 B4 | !^!c4 f2 e2 | d8 | e2 B2 B4- | B4!p! B2 B2 |"^cresc." B4 =B4 | c4!<(! c2 c2 | d4 d4!<)! | %31
w: du doch,|Gott, al- le-|zeit,|al- le- zeit|_ mei- nes|Her- zens|Trost, mei- nes|Her- zens|
 !^!e4 f4 | B8- | B4 A4 | (!>!A4 G4) |!p! F4 F4 | E8- | E8- | E4!mf! E2 E2 |!<(! A4 A4!<)! | %40
w: Trost, mein|Teil,|_ mein|Trost _|und mein|Teil,|_|* und mein|Teil, *|
!>(! !fermata!G6!>)! |] %41
w: |
V:2
 E4 E2 E2 | D6 E2 | F2 (E2 F2 E2) | D2 F2 F2 F2 | E6 E2 | D2 (E2 F4) | D4 z4 | z2!f! F2 G2 =AA | %8
w: |||||||so fra- ge ich|
 B2 _A2 G2 GG | (G4 F2 E2) | D6 x2 :| _D4 (D2 E2) | F2 _G4 G2 | F4 F2 F2 | (F4 E4) | F8 | _A4 A4 | %17
w: |||||||||
 G2 A4 A2 | G4 G2 G2 | (G4 F4) | G8 | z4!f! F2 E2 | (D2 E2) F4 | E4 E4 | E4 A2 G2 | F8 | B6 A2 | %27
w: ||||so bist|du _ doch,|Gott, doch,|||al- le-|
 G4 G2 G2 | G6 F2 | E4 F2 F2 | F4 B4 | B4 F4- | (F4 E4) | (E4 F2 E2 | D4) E4- | E4 D4 | %36
w: zeit, * *||||* mein|_ _|Teil, _ _|_ und|_ mein|
 E4 B,2 B,2 | C4 _D4 | C8 | E4 E4 | E6 |] %41
w: Teil, mei- nes|Her- zens|Trost,|und mein|Teil.|
V:3
!p!!<(! B4 B2 B2!<)! | B6!mf! B2 | c4!>(! B4!>)! | B2!p!!<(! B2 B2 B2!<)! | B2!mf! B2 c4 | %5
w: Wenn ich nur|dich, nur|dich ha-|be, wenn ich nur|dich, nur dich|
 (B4 c4) |!>(! =B4!>)! z4 | z2!f! _B2 B2 cc | !^!B6 B2 | B2 B!>(!B =A4 | B6!>)! z2 :| %11
w: ha- *|be,|so fra- ge ich|nichts, nach|Him- mel und Er-|de.|
!pp! B4 (B2 c2) |!<(! _d2 d4!<)! e2 | _d4 A2 A2 |!>(! B8!>)! | c8 |!pp! c4 (c2 =d2) | %17
w: Wenn mir _|gleich Leib und|See- le ver-|schmach-|ten,|wenn mir _|
!<(! e2 e4 f2 | e4!<)! B2 B2 |!>(! c8!>)! | d8 |!f! c2 B2 A4 | (B2 c2) d4 | B4 (e2 _d2) | !^!c8 | %25
w: gleich Leib und|See- le ver-|schmach-|ten,|so bist du,|du _ doch,|Gott, doch, _|Gott,|
 z4 =d2 c2 | B4 f2 B2 | B4!p! e2 e2 |"^cresc." e4 d4 | c4!<(! c2 c2 | B4 d4!<)! | !^!B4 (B2 A2) | %32
w: al- le-|zeit, al- le-|zeit, mei- nes|Her- zens|Trost, mei- nes|Her- zens|Trost, mein _|
 G4 G2 G2 | c8 | F4 (G2 A2) | B4!p! (B2 A2) | G4!<(! G2!<)! G2 | A4!>(! B4!>)! | A8 | %39
w: Teil, und mein|Teil,|und mein _|Teil, mein *|Teil, mei- nes|Her- zens|Trost,|
!<(! c4 c4!<)! |!>(! !fermata!B6!>)! |] %41
w: und mein|Teil.|
V:4
!p!!<(! E,4 E,2 E,2!<)! | B,6!mf! G,2 | !>!F,2 (C,2!>(! D,2 E,2)!>)! | %3
w: Wenn ich nur|dich, nur|dich ha- * *|
 B,,2!p!!<(! D,2 D,2 D,2!<)! | E,6!mf! C,2 | G,4 F,4 |!>(! G,4!>)! z4 | z2!f! D,2 E,2 C,C, | %8
w: be, wenn ich nur|dich, nur|dich ha-|be,|so fra- ge ich|
 !^!G,2 F,2 E,2 G,G, | (E,4!>(! F,4) | B,,6!>)! z2 :|!pp! B,,4 B,,4 |!<(! B,2 _G,4!<)! E,2 | %13
w: nichts, nach Him- mel und|Er- *|de.|Wenn mir|gleich Leib und|
 B,,4 F,2 F,2 |!>(! _G,8!>)! | F,2!p! F,2 F,2 F,2 |!pp! F,8 |!<(! C,2 A,4 F,2 | C,4!<)! G,2 G,2 | %19
w: See- le ver-|schmach-|ten, wenn mir gleich|Leib,|gleich Leib und|See- le ver-|
!>(! A,8!>)! | G,4!f! G,2 F,2 | E,4 F,4 | B,,4 B,2 A,2 | G,4 G,4 | !^!A,8 | z4 B,2 A,2 | G,4 D,4 | %27
w: schmach-|ten, so bist|du doch,|Gott, so bist|du doch,|Gott,|al- le-|zeit, all-|
 E,8 | z4!mp! G,2 G,2 | A,4!<(! =A,4 | B,4 (B,2 _A,2)!<)! | !^!G,4 D,4 | E,8 | A,,4 A,,4 | B,,8- | %35
w: zeit,|mei- nes|Her- zens|Trost, mein *|Trost, mein|Teil,|und mein|Teil,|
 B,,4!p! B,,4 | E,8- | E,8- | E,8 |!<(! E,4 E,4!<)! |!>(! !fermata![E,,E,]6!>)! |] %41
w: _ mein|Teil,|_||||

